X: 41814
T: Vidarvalsen
R: waltz
M: 3/4
K: Gmajor
D2 G,/ z/ B d2|D2 G,/ z/ B d2|cB Ac eg|gf ed cA|
D2 G,/ z/ B d2|D2 G,/ z/ B d2|cB AD FA|1 G6:|2 G3 ABc||

